!!!ONB: MCCC : IJH0467_02 : Extracted Monophonic Melody
!!!COM: Haydn, Joseph
!!!OPR: String Quartet in G minor
!!!OMV: 2
!!!SCT: Hob.III:33 ; Op.20 No.3
!!!ODT: 1772///
**kern
*thru
*k[b-e-]
*g:
*clefF
*M3/4
4d
=1
4b-
4a
4g
=2
4g
4g
4g
=3
4cc
4cc
4dd
=4
2ee-
4ee-
=5
4dd
4r
4d
=6
4b-
4a
4g
=7
4g
4g
4a
=8
4b-
4dd
4dd
=9
2ff
4ee
=10
4dd
4r
4d
=11
4dd
4cc
4b-
=12
4b-
4b-
4b-
=13
4ee-
4dd
4cc
=14
4cc
4cc
4cc
=15
4ff
4ee-
4dd
=16
4dd
4dd
4ee
=17
2.ff[
=18
2.ff]
=19
2.gg[
=20
4gg]
4ff
4ff
=21
4ff
4gg
4aa
=22
4bb-
4ccc
4ddd
=23
2dd
4cc
=24
2.b-
=25
2.b-[
=26
2.b-]
=27
2.b-
=28
4b-
4a-
4g
=29
4g
4f
4e-
=30
4e-
4d
4c#
=31
2.c#
=32
4d
8e
8f#
8g
8a
=33
4b-
4a
4g
=34
4g
4g
4g
=35
4cc
4cc
4dd
=36
2ee-
4ee-
=37
4dd
2r
=38
4c
4c
4d
=39
2f
4e-
=40
4d
4cc
4b-
=41
4b-
4a-
4a-
=42
4a-
4g
4g
=43
2g
8a
8f#
=44
4g
4r
4G
=45
4g
4f
4e-
=46
4e-
4d
4f
=47
2f
4e-
=48
4d
4g
4f
=49
2f
4e-
=50
4d
4g
4f
=51
2f
4e-
=52
4d
4r
4B-
=53
*E-:
8e-
8B-
8G
8B-
8e-
8B-
=54
8g
8e-
8b-
8g
8b-
8g
=55
8b-
8a-
8f
8a-
8g
8e-
=56
8d
8e-
8f
8d
8B-
8d
=57
8e-
8B-
8G
8B-
8e-
8B-
=58
8g
8e-
8b-
8g
8b-
8g
=59
8f
8d
8b-
8f
8b-
8f
=60
8c
8e-
8f
8a
8cc
8ee-
=61
8dd
8b-
8a
8b-
8f
8b-
=62
8g
8b-
8f
8b-
8a
8ee-
=63
8dd
8b-
8a
8b-
8f
8b-
=64
8g
8b-
8f
8b-
8a
8ee-
=65
8dd
8b-
8a
8b-
8f
8a-
=66
8g
8b
8cc
8ee-
8e-
8g
=67
8f
8a
8b-
8dd
8d
8dd
=68
8e-
8dd
8e
8cc
8g
8b-
=69
8a
8f
8e
8f
8cc
8a
=70
8ee-
8cc
8a
8f
8e-
8c
=71
8d
8f
8b-
8d
8c
8a
=72
4B-
4r
4B-
=73
8d-
8B-
8G
8B-
8G
8e
=74
8f
8c
8d-
8c
8a-
8c
=75
8g
8c
8d-
8c
8b-
8c
=76
8a-
8c
8d-
8c
8a-
8c
=77
8a-
8B-
8c
8B-
8a-
8B-
=78
8g
8B-
8c
8B-
8g
8B-
=79
8g
8A-
8B-
8A-
8g
8A-
=80
8f
8A-
8B-
8A-
8f
8A-
=81
8f
8G
8A-
8G
8f
8G
=82
8e-
8c
8B
8c
8A-
8f#
=83
8G
8g
8f#
8g
8e-
8c
=84
8G
8g
8f#
8g
8e-
8c
=85
8G
8g
8f#
8g
8e-
8c
=86
8G
8g
8f#
8g
8e-
8c
=87
4G
2r
=88
2.r
==
*-
